!!!!SEGMENT: pl-gd--ee-1638--005-011_marenzio-luca--il-primo-libro-de-madrigali-spirituali-a-cinque-voci-e-quiesto-il-legno.krn
!!!cenid: 15xx:964
!!!COM: Marenzio, Luca
!!!COM-rismID: pe30003955
!!!CDT: ~1553-1599/08/22
!!!CNT: Italian
!!!GTL: Il Primo libro de madrigali spirituali a cinque voci
!!!OTL: E quiesto il legno
!!!OMV: 011
!!!PDT: 1588
!!!AGN:
!!!SMS-siglum: PL-GD
!!!SMS-shelfmark: Ee 1638
!!!SMS-shelfwork: 005-011 G
!!!SMS-variant:
!!!SMS-altvar:
!!!NIFC-rismSourceID: 1001202747
!!!NIFC-rismChildID: 990039269
!!!NIFC-islandoraID: pl-gd:57883
!!!URL-pdf-islandora: https://repozytorium.nifc.pl/islandora/object/pl-gd%3A57883/datastream/PDF/view
!!!URL-scan: https://polish.musicsources.pl/pl/lokalizacje/galeria/klocki-introligatorskie/655 @EN{Scan on Polish Music Sources Website} @PL{Skany w portalu Dziedzictwo Muzyki Polskiej w otwartym dostępie}
!!!ONB-nifc: UWAGA: zbiór na stronach: Canto: s. 666-677, Alto: s. 514-525, Tenore: s. 362-373, Bassus: s. 210-221, Quinto: s. 58-69. Uwaga: utwory podzielone wg tytułów w spisach treści dostępnych na końcu każdej księgi głosowej.
!!!AIN: 1 alto 1 bass 1 soprn 1 tenor 1 vox
!!!key: a
!!!OMD:
!!!OMD-mod: Prima parte
**kern	**text	**kern	**text	**kern	**text	**kern	**text	**kern	**text
*part5	*part5	*part4	*part4	*part3	*part3	*part2	*part2	*part1	*part1
*staff5	*staff5	*staff4	*staff4	*staff3	*staff3	*staff2	*staff2	*staff1	*staff1
*I"QVINTO	*	*I"BASSO	*	*I"TENORE	*	*I"ALTO	*	*I"CANTO	*
*mI"Quinto	*	*mI"Basso	*	*mI"Tenore	*	*mI"Alto	*	*mI"Soprano	*
*I'V 5	*	*I'B	*	*I'T	*	*I'A	*	*I'S	*
*ICvox	*	*ICvox	*	*ICvox	*	*ICvox	*	*ICvox	*
*Ivox	*	*Ibass	*	*Itenor	*	*Ialto	*	*Isoprn	*
*clefC3	*	*clefF3	*	*clefC3	*	*clefC2	*	*clefG2	*
*mclefGv2	*	*mclefF4	*	*mclefGv2	*	*mclefG2	*	*	*
*k[]	*	*k[]	*	*k[]	*	*k[]	*	*k[]	*
*a:	*	*a:	*	*a:	*	*a:	*	*a:	*
*M2/1	*	*M2/1	*	*M2/1	*	*M2/1	*	*M2/1	*
*met(C)	*	*met(C)	*	*met(C)	*	*met(C)	*	*met(C)	*
=1-	=1-	=1-	=1-	=1-	=1-	=1-	=1-	=1-	=1-
!	!	!	!	!	!	!LO:TX:t=P:problem:w źródle błędnie zapisany klucz sopranowy, chociaż dźwięki jak w mezzosopranowym	!	!	!
!	!	!LO:TX:b:t=E Queſt`il:mod=	!	!	!	!	!	!	!
!LO:TX:a:t=Prima Parte:mod=	!	!LO:TX:a:t=Prima Parte:mod=	!	!LO:TX:a:t=Prima Parte:mod=	!	!LO:TX:a:t=Prima Parte:mod=	!	!LO:TX:a:t=Prima Parte:mod=	!
1e	E	0r	.	1c	E	1g	E	1cc	E
!	!LO:MO:mod=que-	!	!	!	!LO:MO:mod=que-	!	!LO:MO:mod=que-	!	!LO:MO:mod=que-
2e\	Queſ-	.	.	2A/	Queſ-	2a\	Queſ-	2cc\	Queſ-
!	!LO:MO:mod=-st`il	!	!	!	!LO:MO:mod=-st`il	!	!LO:MO:mod=-st`il	!	!LO:MO:mod=-st`il
2e\	-t`il	.	.	2A/	-t`il	2a\	-t`il	2cc\	-to il
=2-	=2-	=2-	=2-	=2-	=2-	=2-	=2-	=2-	=2-
!	!LO:MO:mod=le-	!	!	!	!	!	!	!	!
1g	leg-	0r	.	1G	le-	1b	le-	1dd	le-
!	!LO:MO:mod=-gno	!	!	!	!	!	!	!	!
1g	-no	.	.	1c	-gno	0cc	-gno	1ee	-gno
=3-	=3-	=3-	=3-	=3-	=3-	=3-	=3-	=3-	=3-
!	!	!	!LO:MO:mod=che	!	!	!	!	!	!
2r	.	1.c	Che	2r	.	.	.	2r	.
!	!	!	!	!	!LO:MO:mod=che	!	!	!	!LO:MO:mod=che
1g	che	.	.	1e	Che	.	.	1cc	Che
.	.	.	.	.	.	1r	.	.	.
!	!	!	!	!	!LO:MO:mod=del	!	!	!	!LO:MO:mod=del
2g\	del	2G\	del	2d\	dal	.	.	2b/	dal
=4-	=4-	=4-	=4-	=4-	=4-	=4-	=4-	=4-	=4-
!	!LO:MO:mod=sa-	!	!LO:MO:mod=sa-	!	!LO:MO:mod=sa-	!	!	!	!LO:MO:mod=sa-
2e\	ſac-	2A\	ſac-	2c/	ſac-	0r	.	2a/	ſac-
!	!LO:MO:mod=-cro	!	!LO:MO:mod=-cro	!	!LO:MO:mod=-cro	!	!	!	!LO:MO:mod=-cro
2e\	-ro	2E/	-ro	2B/	-ro	.	.	2g#X/	-ro
2c/	ſan-	1F	ſan-	1A	ſan-	.	.	1a	ſan-
2d\	.	.	.	.	.	.	.	.	.
=5-	=5-	=5-	=5-	=5-	=5-	=5-	=5-	=5-	=5-
0e	-gue	2E/	-gue	2B/	-gue	2r	.	2g#X/	-gue
!	!	!	!LO:MO:mod=Re-	!	!LO:MO:mod=Re-	!	!LO:MO:mod=Re-	!	!LO:MO:mod=Re-
.	.	2E/	Reſ-	2e\	Reſ-	2g#X\	Reſ-	2b/	Reſ-
!	!	!	!LO:MO:mod=-sper-	!	!LO:MO:mod=-sper-	!	!LO:MO:mod=-sper-	!	!LO:MO:mod=-sper-
.	.	1A	-per-	1c	-per-	4a\	-per-	4cc\	-per-
.	.	.	.	.	.	4b\	-ſo	4dd\	-ſo
!	!	!	!	!	!	!	!LO:MO:mod=fù	!	!LO:MO:mod=fù
.	.	.	.	.	.	4cc\	fu	4ee\	fu
!	!	!	!	!	!	!	!	!LO:SIC:v:t=custos dd	!
.	.	.	.	.	.	4a\	nel	4cc\	nel
!	!	!	!	!	!	!	!	!LO:LB:g=original	!
=6-	=6-	=6-	=6-	=6-	=6-	=6-	=6-	=6-	=6-
!	!	!	!	!	!	!LO:SIC:s=4.b\:v	!	!	!
2r	.	1G	-ſo	1.g	-ſo	4.cc\	be-	4.dd\	be-
.	.	.	.	.	.	8a\	-ne-	8cc\	-ne-
!	!LO:MO:mod=Re-	!	!	!	!	!	!	!	!
2d\	Reſ-	.	.	.	.	4gny\	-det-	4b/	-det-
.	.	.	.	.	.	4f\	-to	4a/	-to
!	!	!	!	!	!	!LO:SIC:v:t=custos c	!	!	!
!	!LO:MO:mod=-sper-	!	!LO:MO:mod=fù	!	!	!	!	!	!
4e\	-per-	1c	fu	.	.	2e/	gior-	2gny/	gior-
!LO:SIC:v:t=custos g	!	!	!	!	!	!	!	!	!
4f\	-ſo	.	.	.	.	.	.	.	.
!LO:LB:g=original	!	!	!	!	!	!LO:LB:g=original	!	!	!
!	!LO:MO:mod=fù	!	!	!	!LO:MO:mod=fù	!	!LO:MO:mod=-no,	!	!LO:MO:mod=-no,
4g\	fu	.	.	4e\	fu	2c/	-no	2g/	-no
!	!	!	!	!LO:SIC:v:t=custos a	!	!	!	!	!
4e\	nel	.	.	4g\	nel	.	.	.	.
!	!	!	!	!LO:LB:g=original	!	!	!	!	!
=7-	=7-	=7-	=7-	=7-	=7-	=7-	=7-	=7-	=7-
4.f\	be-	1F	nel	4.a\	be-	2r	.	1r	.
8e\	-ne-	.	.	8g\	-ne-	.	.	.	.
4d\	-det-	.	.	4f\	-det-	2a\	nel	.	.
4c/	-to	.	.	4e\	-to	.	.	.	.
!	!	!	!	!	!	!LO:SIC:s=4.b\:v	!	!	!
2B/	gior-	2G\	be-	1d	gior-	4.b#X\	be-	2r	.
.	.	.	.	.	.	8a\	-ne-	.	.
!	!	!LO:SIC:v:t=custos C	!	!	!	!	!	!	!
!	!LO:MO:mod=-no,	!	!	!	!	!	!	!	!LO:MO:mod=re-
4B/	-no	2G\	-ne-	.	.	4g\	-det-	2dd\	Reſ-
*	*ij	*	*	*	*	*	*	*	*
!	!LO:MO:mod=re-	!	!	!	!	!	!	!	!
4B/	Reſ-	.	.	.	.	4f\	-to	.	.
!	!	!LO:LB:g=original	!	!	!	!	!	!	!
=8-	=8-	=8-	=8-	=8-	=8-	=8-	=8-	=8-	=8-
!	!LO:MO:mod=-sper-	!	!	!	!LO:MO:mod=-no,	!	!	!	!LO:MO:mod=-sper-
4c/	-per-	1C	-det-	2g\	-no	2e/	gior-	4ee\	-per-
4d\	-ſo	.	.	.	.	.	.	4ff\	-ſo
!	!LO:MO:mod=fù	!	!	!	!	!	!LO:MO:mod=-no,	!	!LO:MO:mod=fù
4e\	fu	.	.	4r	.	4c/	-no	4gg\	fu
*	*	*	*	*	*ij	*	*ij	*	*
4e\	nel	.	.	4c/	be-	4cc\	nel	4ee\	nel
4.d\	be-	1D	-to	2f\	-ne-	4a\	be-	4.ff\	be-
.	.	.	.	.	.	4a\	-ne-	.	.
8c/	-ne-	.	.	.	.	.	.	8ee\	-ne-
4B/	-det-	.	.	2f\	-det-	2.bny\	-det-	4dd\	-det-
4A/	-to	.	.	.	.	.	.	4cc\	-to
*	*Xij	*	*	*	*	*	*	*	*
=9-	=9-	=9-	=9-	=9-	=9-	=9-	=9-	=9-	=9-
0G	gior-	2.E/	gior-	2g\	-to	.	.	2b/	gior-
.	.	.	.	.	.	4a\	-to	.	.
.	.	.	.	2e\	gior-	2.g\	gior-	2.cc\	.
.	.	4F/	.	.	.	.	.	.	.
.	.	1G	.	1d	.	.	.	.	.
!	!	!	!	!	!	!LO:SIC:s=8f\L:v	!	!LO:SIC:s=8b\L:v	!
.	.	.	.	.	.	8f\	.	8b\	.
!	!	!	!	!	!	!LO:SIC:s=8e\J:v	!	!LO:SIC:s=8a/J:v	!
.	.	.	.	.	.	8e\	.	8a/	.
.	.	.	.	.	.	2d/	.	2b/	.
=10-	=10-	=10-	=10-	=10-	=10-	=10-	=10-	=10-	=10-
2G/	-no	1C	-no	1g	-no	2e/	-no	2cc\	-no
!	!	!	!	!	!	!	!	!LO:SIC:v:t=custos ee	!
*	*	*	*	*	*	*	*Xij	*	*
4c/	Che	.	.	.	.	4e/	Che	2r	.
4d\	fug-	.	.	.	.	4f\	fug-	.	.
!LO:SIC:v:t=custos a	!	!	!	!	!	!LO:SIC:v:t=custos e	!	!LO:LB:g=original	!
!	!LO:MO:mod=-gì	!	!	!	!	!	!LO:MO:mod=-gì	!	!
1e	-gi	4c\	Che	2r	.	1g	-gi	4ee\	Che
.	.	4d\	fug-	.	.	.	.	4ff\	fug-
*	*	*	*	*	*Xij	*	*	*	*
!	!	!	!	!	!	!	!	!	!LO:MO:mod=-gì,
!	!	!	!LO:MO:mod=-gì,	!	!	!	!	!	!
.	.	2e\	-gi	4c/	Che	.	.	2gg\	-gi
.	.	.	.	4d\	fug-	.	.	.	.
!LO:LB:g=original	!	!	!	!	!	!LO:LB:g=original	!	!	!
=11-	=11-	=11-	=11-	=11-	=11-	=11-	=11-	=11-	=11-
*	*	*	*	*	*	*	*	*	*ij
!	!	!	!LO:MO:mod=che	!	!LO:MO:mod=-gì	!	!	!	!
2a\	vin-	4A\	Che	1e	-gi	2r	.	4cc\	che
.	.	4B\	fug-	.	.	.	.	4dd\	fug-
!	!	!	!	!	!	!	!	!	!LO:MO:mod=-gì
!	!	!	!LO:MO:mod=-gì	!	!	!	!	!	!
2g\	-to	2c\	-gi	.	.	2e/	vin-	2ee\	-gi
*	*	*	*	*	*	*	*	*	*Xij
4f\	con	2F/	vin-	2a\	vin-	2c/	-to	2ff\	vin-
4f\	pau-	.	.	.	.	.	.	.	.
4e\	-ra	2C/	-to	2g\	-to	4cc\	con	2gg\	-to
4e\	e	.	.	.	.	4cc\	pau-	.	.
=12-	=12-	=12-	=12-	=12-	=12-	=12-	=12-	=12-	=12-
2d\	ſcor-	4D/	con	4f\	con	4a\	-ra	1r	.
.	.	4D/	pau-	4f\	pau-	4a\	e	.	.
!	!LO:MO:mod=-no,	!	!	!	!	!	!	!	!
2c/	-no	4A\	-ra	4e\	-ra	1a	ſcor-	.	.
.	.	4A\	e	4e\	e	.	.	.	.
!	!LO:MO:mod=che	!	!	!	!	!	!	!	!
4A/	Che	2D/	ſcor-	2d\	ſcor-	.	.	4ff\	con
4B/	fug-	.	.	.	.	.	.	4ff\	pau-
!	!	!LO:SIC:v:t=custos D	!	!LO:SIC:v:t=custos f	!	!	!	!	!
!	!LO:MO:mod=-gì,	!	!LO:MO:mod=-no,	!	!LO:MO:mod=-no,	!	!LO:MO:mod=-no,	!	!
2c/	-gi	2A\	-no	2e\	-no	1a\	-no	4ee\	-ra
.	.	.	.	.	.	.	.	4ee\	e
!	!	!LO:LB:g=original	!	!LO:LB:g=original	!	!	!	!	!
=13-	=13-	=13-	=13-	=13-	=13-	=13-	=13-	=13-	=13-
!	!LO:MO:mod=che	!	!LO:MO:mod=che	!	!	!	!	!	!
4f\	Che	4D/	Che	2r	.	.	.	2dd\	ſcor-
4g\	fug-	4E/	fug-	.	.	.	.	.	.
!	!LO:MO:mod=-gì	!	!LO:MO:mod=-gì	!	!	!	!LO:MO:mod=che	!	!LO:MO:mod=-no,
2a\	-gi	2F/	-gi	4f\	con	4a\	Che	2cc\	-no
.	.	.	.	4f\	pau-	4b\	fug-	.	.
!	!	!	!	!	!	!	!LO:MO:mod=-gì	!	!
2g\	vin-	2C/	vin-	4e\	-ra	2cc\	-gi	2r	.
.	.	.	.	4e\	e	.	.	.	.
*	*	*	*	*	*	*	*	*	*ij
2f\	-to	2D/	-to	1d\	ſcor-	2a\	vin-	2.ff\	con
=14-	=14-	=14-	=14-	=14-	=14-	=14-	=14-	=14-	=14-
1r	.	4d\	con	.	.	2a\	-to	.	.
.	.	4d\	pau-	.	.	.	.	4ff\	-pau-
.	.	4c\	-ra	2g\	-no	4e/	con	4ee\	-ra
.	.	4c\	e	.	.	4e/	pau-	4ee\	e
1d	Quel	1B-X	ſcor-	1r	.	4f\	-ra	1.dd	ſcor-
.	.	.	.	.	.	4f\	e	.	.
.	.	.	.	.	.	2g\	ſcor-	.	.
=15-	=15-	=15-	=15-	=15-	=15-	=15-	=15-	=15-	=15-
!	!LO:MO:mod=fal-	!	!	!	!	!	!	!	!
1f	fals`	0A	-no	1r	.	1a	-no	.	.
.	.	.	.	.	.	.	.	4cc#X\	.
!	!	!	!	!	!	!	!	!LO:SIC:v:t=custos cc	!
.	.	.	.	.	.	.	.	4b/	.
!	!	!	!	!	!	!	!	!LO:LB:g=original	!
!	!LO:MO:mod=-s`an-	!	!	!	!	!	!	!LO:SIC:s=1cc#:v	!
2e\	an-	.	.	2r	.	2r	.	1cc#X	.
!LO:SIC:v:t=custos g	!	!	!	!	!	!	!	!	!
1a\	-ti-	.	.	1A/	Quel	2e/	Quel	.	.
!LO:LB:g=original	!	!	!	!	!	!	!	!	!
=16-	=16-	=16-	=16-	=16-	=16-	=16-	=16-	=16-	=16-
.	.	1D	Quel	.	.	2f#X\	fal-	1dd	-no
!	!	!	!	!	!	!LO:SIC:v:t=custos a	!	!	!
1g	-co	.	.	1B-X	fal-	2g\	-ſ`an-	.	.
!	!	!	!	!	!	!LO:LB:g=original	!	!	!
.	.	2C#X/	fals`an-	.	.	2.a\	-ti-	2r	.
*	*	*	*	*	*	*	*	*	*Xij
!	!LO:MO:mod=alpe-	!	!	!	!LO:MO:mod=-s`an-	!	!	!	!
2f\	alpeſ-	2D/	-ti-	1A/	-ſo an-	.	.	2a/	Quel
.	.	.	.	.	.	4b\	.	.	.
=17-	=17-	=17-	=17-	=17-	=17-	=17-	=17-	=17-	=17-
!	!LO:MO:mod=-str`e	!	!	!	!	!	!	!	!
1e	-tr`e	0E	-co	.	.	2cc\	.	2.ee\	fal-
.	.	.	.	1G#X	-tic`	1b	-co	.	.
!	!	!	!	!	!	!	!	!	!LO:MO:mod=-s`an-
.	.	.	.	.	.	.	.	4dd\	-ſo an-
2.e\	ri-	.	.	.	.	.	.	1ccny	-ti-
.	.	.	.	2A/	al-	1a\	al-	.	.
4e\	-gi-	.	.	.	.	.	.	.	.
=18-	=18-	=18-	=18-	=18-	=18-	=18-	=18-	=18-	=18-
!	!	!	!	!	!LO:MO:mod=-pe-	!	!	!	!
1e	-do an-	1E	al-	1Bny	-peſ-	.	.	2b/	-co al-
!	!	!	!	!	!	!	!LO:MO:mod=-pe-	!	!LO:MO:mod=-pe-
.	.	.	.	.	.	1g	-peſ-	1ee	-peſ-
!	!	!	!LO:MO:mod=-pe-	!	!LO:MO:mod=-str`e	!	!	!	!
!	!LO:MO:mod=-gue,	!	!	!	!	!	!	!	!
2e\	-gue	1A	-peſ-	2c#X/	-tro e	.	.	.	.
!	!	!	!	!	!	!	!LO:MO:mod=-str`e ri-	!	!LO:MO:mod=-str`e ri-
2a\	e	.	.	2.d\	ri-	2.fny\	-tr`e ri-	1dd\	-tro e ri-
=19-	=19-	=19-	=19-	=19-	=19-	=19-	=19-	=19-	=19-
!	!	!	!LO:MO:mod=-str`e	!	!	!	!	!	!
2.a\	ri-	1A	-tr`e	.	.	.	.	.	.
.	.	.	.	4d\	-gi-	4f\	-gi-	.	.
!	!	!	!	!	!LO:MO:mod=-do,	!	!	!	!
.	.	.	.	2e\	-do	2a\	-do an-	2.cc\	-gi-
4e\	-gi-	.	.	.	.	.	.	.	.
!	!	!	!	!	!	!	!LO:MO:mod=-gue, e	!	!
4g\	-do	2.G\	ri-	2r	.	2d/	-gue e	.	.
!LO:SIC:s=8f\L:v	!	!	!	!	!	!	!	!	!
8f\	an-	.	.	.	.	.	.	4b/	-do
!LO:SIC:s=8e\J:v	!	!	!	!	!	!	!	!	!
8e\	.	.	.	.	.	.	.	.	.
4d\	.	.	.	2B/	e	2g\	ri-	2b/	an-
!	!	!LO:SIC:v:t=custos F	!	!	!	!	!	!	!
4e\	.	4G\	-gi-	.	.	.	.	.	.
!	!	!LO:LB:g=original	!	!	!	!	!	!	!
=20-	=20-	=20-	=20-	=20-	=20-	=20-	=20-	=20-	=20-
!	!	!	!	!	!	!	!	!	!LO:MO:mod=-gue?
4A/	.	2.F/	-do	2.cny/	ri-	2.cc\	-gi-	1a	-gue
4B/	.	.	.	.	.	.	.	.	.
2.c/	.	.	.	.	.	.	.	.	.
.	.	4E/	an-	4c/	-gi-	4cc\	-do	.	.
!	!	!	!	!LO:SIC:v:t=custos G	!	!	!	!	!
.	.	1D	.	1d	-do an-	1.f	an-	1r	.
!LO:SIC:s=8B/L:v	!	!	!	!	!	!	!	!	!
8B/	.	.	.	.	.	.	.	.	.
!LO:SIC:s=8A/J:v	!	!	!	!	!	!	!	!	!
8A/	.	.	.	.	.	.	.	.	.
2B/	.	.	.	.	.	.	.	.	.
!	!	!	!	!LO:LB:g=original	!	!	!	!	!
=21-	=21-	=21-	=21-	=21-	=21-	=21-	=21-	=21-	=21-
!	!LO:MO:mod=-gue?	!	!LO:MO:mod=-gue?	!	!LO:MO:mod=-gue?	!	!	!	!
0c	-gue	0Cny	-gue	0Gny	-gue	.	.	0r	.
.	.	.	.	.	.	4e/	.	.	.
.	.	.	.	.	.	4d/	.	.	.
!	!	!	!	!	!	!	!LO:MO:mod=-gue?	!	!
.	.	.	.	.	.	1e	-gue	.	.
=22-	=22-	=22-	=22-	=22-	=22-	=22-	=22-	=22-	=22-
!	!	!	!	!	!	!	!	!	!LO:MO:mod=Qui,
1r	.	1r	.	1r	.	1r	.	0ee	Qui
!LO:SIC:v:t=custos a	!	!	!	!	!	!	!	!	!
0e	Qui`l	0A	Qui`l	0c#X	Qui`l	0a	Qui`l	.	.
!LO:LB:g=original	!	!	!	!	!	!	!	!	!
=23-	=23-	=23-	=23-	=23-	=23-	=23-	=23-	=23-	=23-
.	.	.	.	.	.	.	.	2r	.
!	!	!	!	!	!	!	!	!	!LO:MO:mod=qui`l
.	.	.	.	.	.	.	.	1a	Qui`l
1a	mio	1D	mio	1d	mio	1f#X	mio	.	.
.	.	.	.	.	.	.	.	2dd\	mio
=24-	=24-	=24-	=24-	=24-	=24-	=24-	=24-	=24-	=24-
2d\	ſi-	2D/	ſi-	2A/	ſi-	2f#yX\	ſi-	2dd\	ſi-
1d	-gnor	1G	-gnor	1B	-gnor	1g	-gnor	1dd	-gnor
!	!	!	!	!	!	!LO:SIC:v:t=custos a	!	!	!
!	!LO:MO:mod=la-	!	!LO:MO:mod=la-	!	!LO:MO:mod=la-	!	!	!	!
2e\	laſ-	2C/	laſ-	2cny/	laſ-	2g\	la-	2cc\	la-
!	!	!	!	!	!	!LO:LB:g=original	!	!	!
=25-	=25-	=25-	=25-	=25-	=25-	=25-	=25-	=25-	=25-
!	!LO:MO:mod=-sciò	!	!LO:MO:mod=-sciò	!	!LO:MO:mod=-sciò	!	!LO:MO:mod=-sciò	!	!LO:MO:mod=-sciò
2.f\	-ciò	2.F/	-ciò	2c/	-ciò	2.a\	-ſcio	1cc	-ſcio
.	.	.	.	2A/	la	.	.	.	.
4c/	la	4A\	la	.	.	4e/	la	.	.
!	!	!	!	!	!	!	!	!LO:SIC:v:t=custos ee	!
2B/	ſpo-	2E/	ſpo-	2G#X/	ſpo-	2e/	ſpo-	1r	.
2A/	-glia e	2F/	-glia e	2A/	-glia e	2d/	-glia e	.	.
!	!	!	!	!	!	!	!	!LO:LB:g=original	!
=26-	=26-	=26-	=26-	=26-	=26-	=26-	=26-	=26-	=26-
1G#X	ſan-	1E	ſan-	1B	ſan-	1e	ſan-	1r	.
!	!LO:MO:mod=-gue,	!	!LO:MO:mod=-gue,	!	!LO:MO:mod=-gue,	!	!LO:MO:mod=-gue,	!	!
1G#	-gue	1E	-gue	1B	-gue	2e/	-gue	2r	.
.	.	.	.	.	.	2e/	Tor-	2ee\	Tor-
=27-	=27-	=27-	=27-	=27-	=27-	=27-	=27-	=27-	=27-
0r	.	0r	.	1r	.	4fny\	-nan-	4a/	-nan-
.	.	.	.	.	.	4g\	-d`al	4b/	-d`al
.	.	.	.	.	.	4a\	ſuo	4cc\	ſuo
.	.	.	.	.	.	4b\	ce-	4dd\	ce-
!	!	!	!	!	!	!	!LO:MO:mod=-le-	!	!LO:MO:mod=-le-
.	.	.	.	2r	.	4cc\	-leſ-	4ee\	-leſ-
!	!	!	!	!	!	!	!LO:MO:mod=-ste al-	!	!LO:MO:mod=-ste al-
.	.	.	.	.	.	4.a\	-te al-	4.cc\	-te al-
.	.	.	.	2e\	Tor-	.	.	.	.
.	.	.	.	.	.	8a\	-to	8cc\	-to
.	.	.	.	.	.	4g\	ſog-	4b/	ſog-
=28-	=28-	=28-	=28-	=28-	=28-	=28-	=28-	=28-	=28-
1r	.	0r	.	4A/	-nan-	1cc	-gior-	1a	-gior-
.	.	.	.	4B/	-d`al	.	.	.	.
.	.	.	.	4c/	ſuo	.	.	.	.
.	.	.	.	4d\	ce-	.	.	.	.
!	!	!	!	!LO:SIC:v:t=custos c	!	!	!	!	!
!	!	!	!	!	!	!	!LO:MO:mod=-no,	!	!LO:MO:mod=-no,
2r	.	.	.	4e\	-le-	4b\	-no	4g/	-no
!	!	!	!	!LO:LB:g=original	!	!	!	!	!
!	!	!	!	!	!	!	!LO:MO:mod=tor-	!	!
.	.	.	.	4.c/	-ſte al-	4e/	Tor-	4.ee\	al-
!	!	!	!	!	!	!	!LO:MO:mod=-nan-	!	!
2g\	Tor-	.	.	.	.	4c/	-nã(n)-	.	.
.	.	.	.	8c/	-to	.	.	8ee\	-to
.	.	.	.	4B/	ſog-	4d/	-d`al	4dd\	ſog-
=29-	=29-	=29-	=29-	=29-	=29-	=29-	=29-	=29-	=29-
!	!LO:MO:mod=-nan-	!	!	!	!	!	!	!	!
4c/	-nã(n)-	1r	.	1A	-gior-	4e/	ſuo	2cc\	-gior-
4d\	-d`al	.	.	.	.	4f\	ce-	.	.
!	!	!	!	!	!	!LO:SIC:v:t=custos cc	!	!	!
!	!	!	!	!	!	!	!	!	!LO:MO:mod=-no,
4e\	ſuo	.	.	.	.	4c/	-le-	2a/	-no
!	!	!	!	!	!	!LO:LB:g=original	!	!	!
4f\	ce-	.	.	.	.	4.cc\	-ſte al-	.	.
!	!	!	!	!	!LO:MO:mod=-no,	!	!	!	!
!	!LO:MO:mod=-le-	!	!	!	!	!	!	!	!
4g\	-leſ-	2r	.	4Gny/	-no	.	.	2r	.
.	.	.	.	.	.	8b\	-to	.	.
!	!LO:MO:mod=-ste al-	!	!	!	!	!	!	!	!
4.e\	-te al-	.	.	4.g\	al-	4b\	ſog-	.	.
!	!	!	!	!	!	!	!	!	!LO:MO:mod=tor-
.	.	2G\	Tor-	.	.	2g\	-gior-	2b/	Tor-
8e\	-to	.	.	8g\	-to	.	.	.	.
4d\	ſog-	.	.	4f\	ſog-	.	.	.	.
=30-	=30-	=30-	=30-	=30-	=30-	=30-	=30-	=30-	=30-
!	!	!	!LO:MO:mod=-nan-	!	!	!	!LO:MO:mod=-no,	!	!LO:MO:mod=-nan-
1c	-gior-	4C/	-nã(n)-	1e	-gior-	1g	-no	4ee\	-nã(n)-
!	!	!	!	!	!	!	!	!	!LO:MO:mod=d`al
.	.	4D/	-d`al	.	.	.	.	4ff\	-d`al
.	.	4E/	ſuo	.	.	.	.	2gg\	ſuo
!	!	!LO:SIC:v:t=custos G	!	!	!	!	!	!	!
.	.	4F/	ce-	.	.	.	.	.	.
!LO:SIC:v:t=custos e	!	!LO:LB:g=original	!	!	!	!	!	!	!
!	!LO:MO:mod=-no,	!	!LO:MO:mod=-le-	!	!LO:MO:mod=-no,	!	!	!	!
2B/	-no	4G\	-leſ-	2d\	-no	2r	.	2dd\	ce-
!	!	!	!LO:MO:mod=-ste al-	!	!	!	!	!	!
.	.	4.d\	-te al-	.	.	.	.	.	.
!LO:LB:g=original	!	!	!	!	!	!	!	!LO:SIC:v:t=custos dd	!
!	!	!	!	!	!	!	!LO:MO:mod=tor-	!	!
4r	.	.	.	2r	.	2a\	Tor-	2ee\	-le-
.	.	8d\	-to	.	.	.	.	.	.
!	!LO:MO:mod=tor-	!	!	!	!	!	!	!	!
4e\	Tor-	4c\	ſog-	.	.	.	.	.	.
!	!	!	!	!	!	!	!	!LO:LB:g=original	!
=31-	=31-	=31-	=31-	=31-	=31-	=31-	=31-	=31-	=31-
!	!LO:MO:mod=-nan-	!	!	!	!	!	!	!	!
4f\	-nã(n)-	1B-X	-gior-	1r	.	4d/	-nan-	2dd\	-ſte
4e\	-d`al	.	.	.	.	4e/	-d`al	.	.
4d\	ſuo	.	.	.	.	4f\	ſuo	4r	.
4d\	ce-	.	.	.	.	4g\	ce-	4.gg\	al-
!	!	!	!	!	!	!	!LO:MO:mod=-le-	!	!
!	!LO:MO:mod=-le-	!	!LO:MO:mod=-no,	!	!	!	!	!	!
4c/	-leſ-	1A	-no	2r	.	2.a\	-leſ-	.	.
.	.	.	.	.	.	.	.	8gg\	-to
!	!LO:MO:mod=-ste al-	!	!	!	!	!	!	!	!
4.c/	-te al-	.	.	.	.	.	.	4ff\	ſog-
.	.	.	.	4.e\	al-	.	.	2ee\	-gior-
8B/	-to	.	.	.	.	.	.	.	.
!	!	!	!	!	!	!	!LO:MO:mod=-ste al-	!	!
4A/	ſog-	.	.	.	.	4.cc\	-te al-	.	.
.	.	.	.	8e\	-to	.	.	.	.
=32-	=32-	=32-	=32-	=32-	=32-	=32-	=32-	=32-	=32-
!	!	!	!	!	!	!	!	!	!LO:MO:mod=-no,
1d	-gior-	0r	.	4f#X\	ſog-	.	.	0dd	-no
.	.	.	.	.	.	8cc\	-to	.	.
.	.	.	.	2g\	-gior-	4b\	ſog-	.	.
.	.	.	.	.	.	2a\	-gior-	.	.
!	!	!	!	!LO:SIC:s=4f#\:v	!	!	!	!	!
.	.	.	.	4f#X\	.	.	.	.	.
!	!LO:MO:mod=-no,	!	!	!	!LO:MO:mod=-no,	!	!LO:MO:mod=-no,	!	!
1Gny	-no	.	.	0g	-no	0b	-no	.	.
=33-	=33-	=33-	=33-	=33-	=33-	=33-	=33-	=33-	=33-
1r	.	0G	E	.	.	.	.	1r	.
1B	E	.	.	1d	E	2r	.	1b	E
.	.	.	.	.	.	2g\	E	.	.
=34-	=34-	=34-	=34-	=34-	=34-	=34-	=34-	=34-	=34-
2.B/	ſco-	2.E/	ſco-	2.e\	ſco-	2.g#X\	ſco-	2.ee\	ſco-
4B/	-lo-	4E/	-lo-	4e\	-lo-	4g#\	-lo-	4ee\	-lo-
!	!	!	!	!LO:SIC:v:t=custos B	!	!	!	!	!
!	!	!	!	!	!	!	!	!	!LO:MO:mod=-ros-
2B/	-roſ-	2E/	-roſ-	2e\	-roſ-	2g#\	-roſ-	2ee\	-roſsi
!	!	!	!	!LO:LB:g=original	!	!LO:SIC:v:t=custos a	!	!	!
!	!	!	!	!	!	!	!	!	!LO:MO:mod=-s`il
2e\	-s`il	2E/	-s`il	2B/	-s`il	2g#\	-s`il	2ee\	il
!	!	!	!	!	!	!LO:LB:g=original	!	!	!
=35-	=35-	=35-	=35-	=35-	=35-	=35-	=35-	=35-	=35-
1e	ſan-	1A	ſan-	1c#X	ſan-	1a	ſan-	1ee	ſan-
1A	-to	2A\	-to	2c#/	-to	1a	-to	2ee\	-to
!	!	!	!	!	!LO:MO:mod=vi-	!	!	!	!
.	.	1D/	vi-	1d\	Vi-	.	.	1ff\	vi-
=36-	=36-	=36-	=36-	=36-	=36-	=36-	=36-	=36-	=36-
1.A	vi-	.	.	.	.	1a	vi-	.	.
.	.	2C#X/	-ſo a-	2e\	-ſo a-	.	.	2ee\	-ſo a-
.	.	0D	-dor-	4fny\	-dor-	2a\	-ſo a-	0dd	-dor-
.	.	.	.	4e\	.	.	.	.	.
!LO:SIC:v:t=custos A	!	!	!	!	!	!	!	!	!
2B-X/	-ſo a-	.	.	4d\	.	2.gny\	-dor-	.	.
.	.	.	.	4cny/	.	.	.	.	.
!LO:LB:g=original	!	!	!	!	!	!	!	!	!
=37-	=37-	=37-	=37-	=37-	=37-	=37-	=37-	=37-	=37-
1A	-dor-	.	.	1d	.	.	.	.	.
!	!	!	!	!	!	!LO:SIC:s=8f\L:v	!	!	!
.	.	.	.	.	.	8f\	.	.	.
!	!	!	!	!	!	!LO:SIC:s=8e\J:v	!	!	!
.	.	.	.	.	.	8e\	.	.	.
.	.	.	.	.	.	2f#X\	.	.	.
1G	-no	1G	-no	1d	-no	0g	-no	1b	-no
=38-	=38-	=38-	=38-	=38-	=38-	=38-	=38-	=38-	=38-
2c/	Co-	0r	.	2e\	Co-	.	.	1r	.
4c/	-me	.	.	4e\	-me	.	.	.	.
4c/	pur-	.	.	4e\	pur-	.	.	.	.
2d\	-pu-	.	.	2f\	-pu-	1r	.	2r	.
2e\	-reo	.	.	2g\	-reo	.	.	2cc\	Co-
=39-	=39-	=39-	=39-	=39-	=39-	=39-	=39-	=39-	=39-
!	!LO:MO:mod=fior,	!	!	!	!	!	!	!	!
1f	fior	2F/	Co-	2c/	fior	2a\	Co-	4cc\	-me
.	.	.	.	.	.	.	.	4cc\	pur-
.	.	4F/	-me	2A/	ch`in-	4a\	-me	2dd\	-pu-
.	.	4F/	pur-	.	.	4a\	pur-	.	.
!	!	!	!	!	!	!	!	!LO:SIC:v:t=custos ff	!
1r	.	2E/	-pu-	4B/	-ci-	2g\	-pu-	2ee\	-reo
!	!	!	!	!LO:SIC:v:t=custos d	!	!	!	!	!
.	.	.	.	4c/	-ſo	.	.	.	.
!	!	!LO:SIC:v:t=custos A	!	!LO:LB:g=original	!	!	!	!LO:LB:g=original	!
!	!	!	!	!	!	!	!	!	!LO:MO:mod=fior,
.	.	2D/	-reo	1d\	lan-	2fny\	-reo	2ff\	fior
!	!	!LO:LB:g=original	!	!	!	!	!	!	!
=40-	=40-	=40-	=40-	=40-	=40-	=40-	=40-	=40-	=40-
!	!LO:MO:mod=co-	!	!	!	!	!	!	!	!
2a\	Co-	1A	fior	.	.	2.e/	fior	2r	.
*	*	*	*	*	*	*	*	*	*ij
!	!	!	!	!	!LO:MO:mod=-gue,	!	!	!	!LO:MO:mod=co-
4a\	-me	.	.	2c#X/	-gue	.	.	2ee\	Co-
4a\	pur-	.	.	.	.	4e/	ch`in-	.	.
2g\	-pu-	1r	.	1r	.	4b\	-ci-	4ee\	-me
.	.	.	.	.	.	4b\	-ſo	4ee\	pur-
2f\	-reo	.	.	.	.	1a\	lan-	2dd\	-pu-
=41-	=41-	=41-	=41-	=41-	=41-	=41-	=41-	=41-	=41-
!	!LO:MO:mod=fior,	!	!	!	!	!	!	!	!
1e	fior	2r	.	2r	.	.	.	2cc\	-reo
!	!	!	!	!	!	!	!LO:MO:mod=-gue,	!	!
.	.	2E/	ch`in-	2e\	ch`in-	2g#X\	-gue	2b/	fior
*	*	*	*	*	*	*	*	*	*Xij
!	!	!	!	!	!	!LO:SIC:v:t=custos g	!	!	!
1r	.	4F/	-ci-	4A/	-ci-	1r	.	2r	.
.	.	4G\	-ſo	4B/	-ſo	.	.	.	.
.	.	1A\	lan-	1cny\	lan-	.	.	2a/	ch`in-
!	!	!	!	!	!	!LO:LB:g=original	!	!	!
=42-	=42-	=42-	=42-	=42-	=42-	=42-	=42-	=42-	=42-
*	*ij	*	*	*	*	*	*	*	*
!	!LO:MO:mod=co-	!	!	!	!	!	!	!	!
2e\	Co-	.	.	.	.	2r	.	4cc\	-ci-
.	.	.	.	.	.	.	.	4dd\	-ſo
!	!	!	!LO:MO:mod=-gue,	!	!LO:MO:mod=-gue,	!	!LO:MO:mod=co-	!	!
4e\	-me	2G#X\	-gue	2B/	-gue	2b\	Co-	2ee\	lan-
4e\	pur-	.	.	.	.	.	.	.	.
!	!	!	!	!	!	!	!	!	!LO:MO:mod=-gue,
2f#X\	-pu-	1r	.	1r	.	4a\	-me	1dd	-gue
.	.	.	.	.	.	4a\	pur-	.	.
!LO:SIC:v:t=custos c	!	!	!	!	!	!	!	!	!
2g\	-reo	.	.	.	.	4b\	-pu-	.	.
.	.	.	.	.	.	4b\	-reo	.	.
!LO:LB:g=original	!	!	!	!	!	!	!	!	!
=43-	=43-	=43-	=43-	=43-	=43-	=43-	=43-	=43-	=43-
!	!	!	!LO:MO:mod=co-	!	!LO:MO:mod=co-	!	!	!	!
1c	fior	2A\	Co-	2e\	Co-	2cc\	fior	2r	.
*	*	*	*	*	*	*	*	*	*ij
.	.	4A\	-me	4e\	-me	2a\	ch`in-	2cc\	ch`in-
.	.	4A\	pur-	4e\	pur-	.	.	.	.
1r	.	2Gny\	-pu-	2g\	-pu-	2b\	-ci-	4dd\	-ci-
.	.	.	.	.	.	.	.	4ee\	-ſo
.	.	2F/	-reo	2a\	-reo	2cc\	-ſo	2ff\	lan-
*	*Xij	*	*	*	*	*	*	*	*
=44-	=44-	=44-	=44-	=44-	=44-	=44-	=44-	=44-	=44-
!	!	!	!	!	!	!	!	!	!LO:MO:mod=-gue,
2r	.	1c	fior	2g\	fior	2cc\	lan-	4ee\	-gue
!	!	!	!	!	!	!	!	!LO:SIC:v:t=custos gg	!
*	*	*	*	*	*	*	*	*	*Xij
.	.	.	.	.	.	.	.	4gg\	co-
!	!	!	!	!	!	!	!	!LO:LB:g=original	!
!	!	!	!	!	!	!	!LO:MO:mod=-gue,	!	!
2g\	ch`in-	.	.	2.e\	ch`in-	2c/	-gue	4gg\	me
.	.	.	.	.	.	.	.	4gg\	pur-
1.a	-ci-	1A	ch`in-	.	.	2r	.	2ff\	-pu-
.	.	.	.	2d\	-ci-	.	.	.	.
.	.	.	.	.	.	2e/	ch`in-	2ee\	-reo
.	.	.	.	4c#X/	-ſo	.	.	.	.
=45-	=45-	=45-	=45-	=45-	=45-	=45-	=45-	=45-	=45-
.	.	2D/	-ci-	1.d	lan-	2f\	-ci-	2dd\	fior
2g\	-ſo	2E/	-ſo	.	.	2gny\	-ſo	2b/	ch`in-
2.fny\	lan-	0F	lan-	.	.	0a	lan-	2a/	-ci-
.	.	.	.	4cny/	.	.	.	2cc\	-ſo
4e\	.	.	.	4B/	.	.	.	.	.
=46-	=46-	=46-	=46-	=46-	=46-	=46-	=46-	=46-	=46-
1d	.	.	.	1A	.	.	.	1dd	lan-
!LO:MO:mod=!null:null	!	!LO:MO:mod=!null:null	!	!LO:MO:mod=!null:null	!	!LO:MO:mod=!null:null	!	!LO:MO:mod=!null:null	!
!LO:N:vis=00	!	!LO:N:vis=00	!	!LO:N:vis=00	!	!LO:N:vis=00	!	!LO:N:vis=00	!
!	!LO:MO:mod=-gue.	!	!	!	!	!	!LO:MO:mod=-gue.	!	!
0.e	-gue	0.E	-gue.	0.B	-gue.	0.g#X	-gue	0.b	-gue.
=47-	=47-	=47-	=47-	=47-	=47-	=47-	=47-	=47-	=47-
.	.	.	.	.	.	.	.	.	.
==	==	==	==	==	==	==	==	==	==
*-	*-	*-	*-	*-	*-	*-	*-	*-	*-
!!!system-decoration: [(s1,s2,s3,s4,s5)]
!!!filter-modern: tie -s | humtr -p | sic -sq | shed -e "s/LO:DY:(a|b|rj)/LO:dy:$1/L" | shed -e "s/TX(.*):t=P:/tx$1:t=P:/LG" | modori -m | autostem -r | shed -e "s/yy//" | shed -k -e "s/\(y([^y])/($1/" | shed -e "s/-//B" | shed -e "s/^(\d+[\/\\]right)/$1yy/I; s/^(\d+[\/\\]left)/$1yy/I" | shed -e "s/^(X?)rep$/$1REP/I" | shed -k -e "s/[<>]//g" | shed -e "s/^custos:/Xcustos:/I" | shed -k -e "s/:TUP:/:tup:/L" | shed -k -e "s/r[a-gA-G]+/r/D" | rid -li
!!!ENC: Filip Voros
!!!END: 2022-06-28
!!!ENC: Jan Barakat
!!!END: 2022-07-15
!!!EED-modern: Antoni Szymański
!!!END-modern: 2022-08-09
!!!YEC: Copyright 2022 Narodowy Instytut Fryderyka Chopina (https://polishscores.org)
!!!YEM: License CC-BY-4.0 (https://creativecommons.org/licenses/by/4.0)
